X: 1
T: 遠い空へ
Q: "Allegro"
M: 3/4
L: 1/4
K: C
|z3|z3|z3|z3|z3|z3|
|z3|zBA|B-B^f|^c>d^c/A/|
|B>^cd/e/|a/b/a-a|B-B^f|a^cA|
|B-B-B|e^f^c|B-B^f|^c>d^c/A/|
|B>^cd/e/|a/b/a-a|B-B^f|a^cA|
|B>A^c|B-B-B-|B-B-B|z^fa|
|b-ba/b/|a-ae|^fa^c|d-dd/e/|
|^f-^fe/^f/|e-ed/e/|^fga|^ab^c'|
|b-ba/b/|a-ae|^fa^c'|d'e'^f'|
|^f'-^f'e'/d'/|^c'-^c'a/^c'/|d'-d'^c'/b/|^ab^c'|
|^f'-^f'e'/d'/|^c'a^f|b-b-b-|b-b-b|
|z3|z3|z3|z3|z3|z3|
|z3|z3|z3|z3|z3|z3|
|z3|z3|z3|z3|z3|z3|
|z3|z3|z3|
